ui/StatusQ/src/assets/img/icons/show-category.svg

<svg fill="none" height="20" viewBox="0 0 20 20" width="20" xmlns="http://www.w3.org/2000/svg"><path clip-rule="evenodd" d="m7.46209 6.21209c-.36612.36611-.36612.95971 0 1.32582l2.64511 2.64519c.2441.244.2441.6398 0 .8838l-2.64511 2.6452c-.36612.3661-.36612.9597 0 1.3258.36611.3661.95971.3661 1.32582 0l3.74999-3.75c.3661-.3661.3661-.9597 0-1.32581l-3.74999-3.75c-.36611-.36612-.95971-.36612-1.32582 0z" fill="#000" fill-opacity=".7" fill-rule="evenodd"/></svg>

<svg width="20" height="20" viewBox="0 0 20 20" fill="none" xmlns="http://www.w3.org/2000/svg">
<path fill-rule="evenodd" clip-rule="evenodd" d="M7.46209 6.21209C7.09597 6.5782 7.09597 7.1718 7.46209 7.53791L10.1072 10.1831C10.3513 10.4271 10.3513 10.8229 10.1072 11.0669L7.46209 13.7121C7.09597 14.0782 7.09597 14.6718 7.46209 15.0379C7.8282 15.404 8.4218 15.404 8.78791 15.0379L12.5379 11.2879C12.904 10.9218 12.904 10.3282 12.5379 9.96209L8.78791 6.21209C8.4218 5.84597 7.8282 5.84597 7.46209 6.21209Z" fill="black" fill-opacity="0.7"/>
</svg>
